X: 285
M: 6/8
L: 1/8
K: Em
f |\
geg fBe | cAd BGc |\
geg fdf | gdc BdG |
gef Bgf | d>^cB B2^d |\
eBe cAc | dAc BGF |\
EGc Beg | Be^d e2 :|

